extension/icons/raw.svg

<?xml version="1.0" standalone="no"?>
<svg xmlns="http://www.w3.org/2000/svg" xmlns:xlink="http://www.w3.org/1999/xlink" version="1.1" x="0px" y="0px" viewBox="0 0 128 128" enable-background="new 0 0 128 128" xml:space="preserve"><g><g><path fill-rule="evenodd" clip-rule="evenodd" d="M103.199,39.9907 L98.8771,35.6692 L81.5177,18.3098 L77.1115,13.9036 L77.0491,13.8412 L77.0491,13.9036 L35.6369,13.9036 C29.6178,13.9036 24.739,18.7835 24.739,24.8015 L24.739,103.261 C24.739,109.28 29.6178,114.159 35.6369,114.159 L92.3007,114.159 C98.3198,114.159 103.199,109.28 103.199,103.261 L103.199,101.172 L98.8771,101.172 L98.8771,103.292 C98.8771,106.904 95.95,109.831 92.3386,109.831 L35.6257,109.831 C32.0143,109.831 29.0872,106.902 29.0872,103.292 L29.0872,24.8483 C29.0872,21.2368 32.0143,18.3098 35.6257,18.3098 L77.0491,18.3098 L77.0491,29.1552 C77.0491,35.1743 81.9279,40.0531 87.9469,40.0531 L98.8771,40.0531 L98.8771,61.9078 L103.199,61.9078 L103.199,40.0531 L103.261,40.0531 L103.199,39.9907 M77.0379,96.7905 L77.0379,66.2783 L72.6797,66.2783 L72.6797,66.3452 L68.3203,66.3452 L68.3203,66.2783 L63.961,66.2783 L63.961,96.7905 L68.3203,96.7905 L68.3203,83.6455 L72.6797,83.6455 L72.6797,96.7916 L77.0379,96.7916 L77.0379,96.7905 M68.3203,79.4222 L68.3203,70.5686 L72.6797,70.5686 L72.6797,79.4222 L68.3203,79.4222 M46.5247,66.2761 L46.5247,96.7927 L50.884,96.7927 L50.884,83.6478 L55.2434,83.6478 L55.2434,79.4244 L50.884,79.4244 L50.884,70.5708 L55.2434,70.5708 L55.2434,66.3452 L50.884,66.3452 L50.884,66.2772 L46.5247,66.2772 L46.5247,66.2761 M55.2434,79.3531 L59.6027,79.3531 L59.6027,70.6355 L55.2434,70.6355 L55.2434,79.3531 M59.6027,83.7146 L55.2434,83.7146 L55.2434,96.7916 L59.6027,96.7916 L59.6027,83.7146 M98.8347,96.7225 L98.8347,92.4322 L103.194,92.4322 L103.194,66.275 L98.8347,66.275 L98.8347,92.362 L94.4754,92.362 L94.4754,66.275 L90.116,66.275 L90.116,92.362 L85.7578,92.362 L85.7578,66.275 L81.3984,66.275 L81.3984,92.4311 L85.7366,92.4311 L85.7366,96.7214 L90.116,96.7214 L90.116,92.4311 L94.4553,92.4311 L94.4553,96.7214 L98.8347,96.7214 L98.8347,96.7225 Z"/></g></g>

<svg xmlns="http://www.w3.org/2000/svg" viewBox="0 0 128 128" xml:space="preserve"><path fill-rule="evenodd" clip-rule="evenodd" d="m103.199 39.99-4.322-4.32-17.36-17.36-4.405-4.406-.063-.063v.063H35.637c-6.02 0-10.898 4.88-10.898 10.898v78.459c0 6.019 4.879 10.898 10.898 10.898H92.3c6.019 0 10.898-4.879 10.898-10.898v-2.089h-4.322v2.12a6.538 6.538 0 0 1-6.538 6.539H35.626a6.54 6.54 0 0 1-6.539-6.539V24.848a6.538 6.538 0 0 1 6.539-6.538h41.423v10.845c0 6.02 4.879 10.898 10.898 10.898h10.93v21.855h4.322V40.053h.062l-.062-.062m-26.161 56.8V66.277H72.68v.067h-4.36v-.067h-4.359V96.79h4.36V83.645h4.359v13.147h4.358v-.002M68.32 79.422V70.57h4.36v8.853h-4.36M46.525 66.276v30.517h4.359V83.648h4.36v-4.224h-4.36v-8.853h4.36v-4.226h-4.36v-.068h-4.36m8.72 13.076h4.359v-8.718h-4.36v8.718m4.36 4.362h-4.36v13.077h4.36V83.715m39.232 13.007v-4.29h4.359V66.275h-4.36v26.087h-4.359V66.275h-4.359v26.087h-4.358V66.275h-4.36v26.156h4.339v4.29h4.379v-4.29h4.34v4.29h4.379v.001Z"/></svg>
